X: 1
T: Old, The
M: 4/4
L: 1/8
R: reel
K: Ador
AB d2 Bd e2|AB d2 ed BG|AB d2 Bd e2|d(B ~B2) AB AG:|
ef g2 fg a2|ef g2 ag fd|ef g2 fg a2|d(B ~B2) AB AG|
ef g2 fg a2|ef g2 ag fd|ef ge fd e2|d(B ~B2) AB AG||
